!!!OTL: JETZT SCHWINGEN WIR DEN HUT
!!!ARE: Europa, Mitteleuropa, Deutschland
!!!SCT: B0345
!!!YEM: Copyright 1995, estate of Helmut Schaffrath.
**kern
*ICvox
*Ivox
*M2/4
*k[]
*C:
{8G
=1
8c
8G
8A
8G
=2
4G
8r}
{8c
=3
8B
8c
8d
8B
=4
4c
8r}
{16c
16d
=5
8e
8e
8e
16f
16e
=6
8d
8d
8d}
{16e
16d
=7
8c
8c
8c
16d
16c
=8
8B
8B
8B}
{16c
16B
=9
8A
8G
8A
8G
=10
8A
8B
8c}
{8d
=11
4e
4d
=12
4c
8r}
==
!!!AGN: Trink - Lied, Moral
!!!ONB: ESAC (Essen Associative Code) Database: BOEHME
!!!AMT: simple duple
!!!AIN: vox
!!!EED: Helmut Schaffrath
!!!EEV: 1.0
*-
